www/assets/icons/text_rotation_none.svg

<svg xmlns="http://www.w3.org/2000/svg" width="24" height="24" viewBox="0 0 24 24" fill='currentColor'><path d="M12 3h-1.5L5.75 14h2.1l.9-2.2h5l.9 2.2h2.1zm-2.62 7 1.87-5.02L13.12 10zm10.37 8-3-3v2H4.25v2h12.5v2z"/></svg>

<svg width="24" height="24" viewBox="0 0 24 24" xmlns="http://www.w3.org/2000/svg" fill='currentColor'><path d="M12 3H10.5L5.75 14H7.85L8.75 11.8H13.75L14.65 14H16.75L12 3ZM9.38 10L11.25 4.98L13.12 10H9.38ZM19.75 18L16.75 15V17H4.25V19H16.75V21L19.75 18Z"/></svg>
